X:1
T:Title
%%score { ( 1 3 ) | 2 }
L:1/8
M:4/4
K:Eb
V:1 treble nm="Grand Piano"
V:3 treble 
V:2 bass 
V:1
 z4 z2[Q:1/4=94] GF | EDEF G2 [GB][GB] | [Ac][Bd][ce][Ac] [GB]4 | [GB]3 [Ac] [GB]GEF | %4
[M:7/8] G[Ac][GB] [EG] [DF]3 |[M:1/4] GF |[M:4/4] EDEF G2 [GB][GB] | [Ac][Bd][ce][Ac] [GB]4 | %8
 [GB]3 [Ac] [GB]GEF |[M:7/8] G[CEA][B,EG] [A,DF] [G,E]3 |[M:1/4] G>F |[M:4/4] G6 z2 | B6 z2 | %13
 [GB]3 [Ac] [GB]GEF |[M:7/8] G[Ac][GB] [EG] [DF]3 |[M:1/4] GF |[M:4/4] EDEF G2 [GB][GB] | %17
 [Ac][Bd][ce][Ac] [GB]4 | [GB]3 [Ac] [GB]GEF |[M:15/8] G[CEA][B,EG][A,DF] [G,E]2- [G,E] z2 z6 |] %20
V:2
 z4 z2 [E,B,E][E,A,E] | [E,G,B,][E,F,B,][E,G,B,][E,A,B,] [E,B,E]2 [E,E][E,E] | %2
 [A,E][A,E][A,E][A,E] [E,E]4 | [E,E]3 [E,E] [E,E][E,B,E][E,G,B,][E,A,B,] | %4
[M:7/8] [E,B,E][E,E][E,E] [E,B,] [B,,B,]3 |[M:1/4] [E,B,E][E,A,E] | %6
[M:4/4] [E,G,B,][E,F,B,][E,G,B,][E,A,B,] [E,B,E]2 [E,E][E,E] | [A,E][A,E][A,E][A,E] [E,E]4 | %8
 [E,E]3 [E,E] [E,E][E,B,E][E,G,B,][E,A,B,] |[M:7/8] [E,B,E]A,,B,, B,, E,3 |[M:1/4] z2 | %11
[M:4/4] z2 [E,B,]>[E,B,] [E,B,]2 z2 | z2 [E,E]>[E,E] [E,E]2 z2 | %13
 [E,E]3 [E,E] [E,E][E,B,E][E,G,B,][E,A,B,] |[M:7/8] [E,B,E][E,E][E,E] [E,B,] [B,,B,]3 | %15
[M:1/4] [E,B,E][E,A,E] |[M:4/4] [E,G,B,][E,F,B,][E,G,B,][E,A,B,] [E,B,E]2 [E,E][E,E] | %17
 [A,E][A,E][A,E][A,E] [E,E]4 | [E,E]3 [E,E] [E,E][E,B,E][E,G,B,][E,A,B,] | %19
[M:15/8] [E,B,E]A,,B,,B,, E,2- E, z2 z6 |] %20
V:3
 x8 | x8 | x8 | x8 |[M:7/8] x7 |[M:1/4] x2 |[M:4/4] x8 | x8 | x8 |[M:7/8] x7 |[M:1/4] x2 | %11
[M:4/4] z2 E>E E2 B>G | z2 G>G G2 z2 | x8 |[M:7/8] x7 |[M:1/4] x2 |[M:4/4] x8 | x8 | x8 | %19
[M:15/8] x15 |] %20

